X:941
T:Reel 941
M:4/4
K:Amaj
L:1/8
ED|CB,A,A  (3FGA EC|DFEC B,2CD|CB,A,A  (3FGA EC|DB,EC A,2A,D|CB,A,A  (3FGA EC|DFEC B,2B,D|CEDC  (3DCB, CDEF| (3GFE  (3DCB, A,2|ED| (3CB,A, EA, FA,EA,| (3B,CB,  (3FGF GAFG| (3AGF EC  (3DCB, CDEF| (3GFE B,D CA, (3B,FE | (3CB,A, EA, FA,EA,| (3FGA EC  (3B,CB, ED|CEAG  (3FGA EC|DB,CB, CA,|
